app/dist/common/images/shandong-xinchao-energy.svg

<svg height="18" viewBox="0 0 18 18" width="18" xmlns="http://www.w3.org/2000/svg"><path d="m0 0h18v18h-18z" fill="#032238"/><path d="m4.11 6h1.67l2.22 2.67-3.33 4.33h-1.67l3.33-4.33zm3.89 0h1.71l1.29 1.88 1.29-1.88h1.71l-1.8 2.5 1.8 2.5h-1.71l-1.29-1.88-1.29 1.88h-1.71l1.8-2.5z" fill="#fff"/></svg>

<!-- by TradingView --><svg width="18" height="18" viewBox="0 0 18 18" xmlns="http://www.w3.org/2000/svg"><path fill="#032238" d="M0 0h18v18H0z"/><path d="M4.11 6h1.67L8 8.67 4.67 13H3l3.33-4.33L4.11 6ZM8 6h1.71L11 7.88 12.29 6H14l-1.8 2.5L14 11h-1.71L11 9.12 9.71 11H8l1.8-2.5L8 6Z" fill="#fff"/></svg>
